images/PEOPLE.svg

<svg height="250" viewBox="0 0 250 250" width="250" xmlns="http://www.w3.org/2000/svg"><path d="m222.222656 0h-152.777344c-15.339843 0-27.777343 12.4375-27.777343 27.777344v166.667968h-13.890625c-15.339844 0-27.777344 12.4375-27.777344 27.777344s12.4375 27.777344 27.777344 27.777344h166.667968c15.339844 0 27.777344-12.4375 27.777344-27.777344v-166.667968c15.339844 0 27.777344-12.4375 27.777344-27.777344s-12.4375-27.777344-27.777344-27.777344zm0 0" fill="#ffd983"/><path d="m55.554688 69.445312h166.667968v-13.890624h-152.777344l-13.890624-6.945313zm0 0" fill="#e39f3d"/><path d="m69.445312 0c-15.339843 0-27.777343 12.4375-27.777343 27.777344v170.519531c-4.097657-2.386719-8.808594-3.851563-13.890625-3.851563-15.339844 0-27.777344 12.4375-27.777344 27.777344s12.4375 27.777344 27.777344 27.777344 27.777344-12.4375 27.777344-27.777344v-170.519531c4.097656 2.386719 8.804687 3.851563 13.890624 3.851563 15.339844 0 27.777344-12.4375 27.777344-27.777344s-12.4375-27.777344-27.777344-27.777344zm0 0" fill="#ffe8b6"/><path d="m83.332031 27.777344c0 7.667968-6.222656 13.890625-13.886719 13.890625-7.667968 0-13.890624-6.222657-13.890624-13.890625 0-7.667969 6.222656-13.886719 13.890624-13.886719 7.664063 0 13.886719 6.21875 13.886719 13.886719m-41.664062 194.445312c0 7.667969-6.222657 13.886719-13.890625 13.886719-7.667969 0-13.886719-6.21875-13.886719-13.886719 0-7.667968 6.21875-13.890625 13.886719-13.890625 7.667968 0 13.890625 6.222657 13.890625 13.890625m166.664062-118.054687c0 3.832031-3.101562 6.941406-6.941406 6.941406h-125c-3.835937 0-6.945313-3.109375-6.945313-6.941406 0-3.835938 3.109376-6.945313 6.945313-6.945313h125c3.839844 0 6.941406 3.109375 6.941406 6.945313m0 27.777343c0 3.839844-3.101562 6.945313-6.941406 6.945313h-125c-3.835937 0-6.945313-3.105469-6.945313-6.945313 0-3.839843 3.109376-6.945312 6.945313-6.945312h125c3.839844 0 6.941406 3.105469 6.941406 6.945312m0 27.777344c0 3.839844-3.101562 6.945313-6.941406 6.945313h-125c-3.835937 0-6.945313-3.105469-6.945313-6.945313s3.109376-6.945312 6.945313-6.945312h125c3.839844 0 6.941406 3.105468 6.941406 6.945312m0 27.777344c0 3.839844-3.101562 6.945312-6.941406 6.945312h-125c-3.835937 0-6.945313-3.105468-6.945313-6.945312s3.109376-6.945312 6.945313-6.945312h125c3.839844 0 6.941406 3.105468 6.941406 6.945312" fill="#c1694f"/></svg>

<svg xmlns="http://www.w3.org/2000/svg" xmlns:xlink="http://www.w3.org/1999/xlink" width="250px" height="250px" viewBox="0 0 250 250" version="1.1">
<g id="surface1">
<path style=" stroke:none;fill-rule:nonzero;fill:rgb(100%,85.09804%,51.372552%);fill-opacity:1;" d="M 222.222656 0 L 69.445312 0 C 54.105469 0 41.667969 12.4375 41.667969 27.777344 L 41.667969 194.445312 L 27.777344 194.445312 C 12.4375 194.445312 0 206.882812 0 222.222656 C 0 237.5625 12.4375 250 27.777344 250 L 194.445312 250 C 209.785156 250 222.222656 237.5625 222.222656 222.222656 L 222.222656 55.554688 C 237.5625 55.554688 250 43.117188 250 27.777344 C 250 12.4375 237.5625 0 222.222656 0 Z M 222.222656 0 "/>
<path style=" stroke:none;fill-rule:nonzero;fill:rgb(89.019608%,62.352943%,23.921569%);fill-opacity:1;" d="M 55.554688 69.445312 L 222.222656 69.445312 L 222.222656 55.554688 L 69.445312 55.554688 L 55.554688 48.609375 Z M 55.554688 69.445312 "/>
<path style=" stroke:none;fill-rule:nonzero;fill:rgb(100%,90.980393%,71.372551%);fill-opacity:1;" d="M 69.445312 0 C 54.105469 0 41.667969 12.4375 41.667969 27.777344 L 41.667969 198.296875 C 37.570312 195.910156 32.859375 194.445312 27.777344 194.445312 C 12.4375 194.445312 0 206.882812 0 222.222656 C 0 237.5625 12.4375 250 27.777344 250 C 43.117188 250 55.554688 237.5625 55.554688 222.222656 L 55.554688 51.703125 C 59.652344 54.089844 64.359375 55.554688 69.445312 55.554688 C 84.785156 55.554688 97.222656 43.117188 97.222656 27.777344 C 97.222656 12.4375 84.785156 0 69.445312 0 Z M 69.445312 0 "/>
<path style=" stroke:none;fill-rule:nonzero;fill:rgb(75.686276%,41.176471%,30.980393%);fill-opacity:1;" d="M 83.332031 27.777344 C 83.332031 35.445312 77.109375 41.667969 69.445312 41.667969 C 61.777344 41.667969 55.554688 35.445312 55.554688 27.777344 C 55.554688 20.109375 61.777344 13.890625 69.445312 13.890625 C 77.109375 13.890625 83.332031 20.109375 83.332031 27.777344 M 41.667969 222.222656 C 41.667969 229.890625 35.445312 236.109375 27.777344 236.109375 C 20.109375 236.109375 13.890625 229.890625 13.890625 222.222656 C 13.890625 214.554688 20.109375 208.332031 27.777344 208.332031 C 35.445312 208.332031 41.667969 214.554688 41.667969 222.222656 M 208.332031 104.167969 C 208.332031 108 205.230469 111.109375 201.390625 111.109375 L 76.390625 111.109375 C 72.554688 111.109375 69.445312 108 69.445312 104.167969 C 69.445312 100.332031 72.554688 97.222656 76.390625 97.222656 L 201.390625 97.222656 C 205.230469 97.222656 208.332031 100.332031 208.332031 104.167969 M 208.332031 131.945312 C 208.332031 135.785156 205.230469 138.890625 201.390625 138.890625 L 76.390625 138.890625 C 72.554688 138.890625 69.445312 135.785156 69.445312 131.945312 C 69.445312 128.105469 72.554688 125 76.390625 125 L 201.390625 125 C 205.230469 125 208.332031 128.105469 208.332031 131.945312 M 208.332031 159.722656 C 208.332031 163.5625 205.230469 166.667969 201.390625 166.667969 L 76.390625 166.667969 C 72.554688 166.667969 69.445312 163.5625 69.445312 159.722656 C 69.445312 155.882812 72.554688 152.777344 76.390625 152.777344 L 201.390625 152.777344 C 205.230469 152.777344 208.332031 155.882812 208.332031 159.722656 M 208.332031 187.5 C 208.332031 191.339844 205.230469 194.445312 201.390625 194.445312 L 76.390625 194.445312 C 72.554688 194.445312 69.445312 191.339844 69.445312 187.5 C 69.445312 183.660156 72.554688 180.554688 76.390625 180.554688 L 201.390625 180.554688 C 205.230469 180.554688 208.332031 183.660156 208.332031 187.5 "/>
</g>
</svg>
